Sources/FrostedUI/Resources/Icons.xcassets/arrowUpRightFromSquareFlush16.imageset/arrow-up-right-from-square-flush-16.svg

<svg width="16" height="16" viewBox="0 0 16 16" fill="none" xmlns="http://www.w3.org/2000/svg" data-fui-icon="true">
  <path
    d="M6.16699 1.75C6.58106 1.75018 6.91699 2.0859 6.91699 2.5C6.91699 2.91411 6.58106 3.24982 6.16699 3.25H4.63379C4.24805 3.25 4.00307 3.25053 3.81836 3.26562C3.64265 3.28 3.5876 3.30367 3.56836 3.31348C3.45865 3.36939 3.36939 3.45865 3.31348 3.56836C3.30367 3.5876 3.28 3.64265 3.26562 3.81836C3.25053 4.00307 3.25 4.24805 3.25 4.63379V11.3662C3.25 11.752 3.25053 11.9969 3.26562 12.1816C3.28 12.3574 3.30368 12.4124 3.31348 12.4316C3.35545 12.514 3.4162 12.5849 3.49023 12.6387L3.56836 12.6865L3.63477 12.709C3.67286 12.7179 3.73056 12.7272 3.81836 12.7344C4.00307 12.7495 4.24805 12.75 4.63379 12.75H11.3662C11.752 12.75 11.9969 12.7495 12.1816 12.7344C12.3574 12.72 12.4124 12.6963 12.4316 12.6865C12.5413 12.6306 12.6306 12.5413 12.6865 12.4316C12.6963 12.4124 12.72 12.3574 12.7344 12.1816C12.7495 11.9969 12.75 11.752 12.75 11.3662V9.83301C12.7502 9.41895 13.0859 9.08301 13.5 9.08301C13.9141 9.08301 14.2498 9.41895 14.25 9.83301V11.3662C14.25 11.7272 14.2507 12.0437 14.2295 12.3037C14.2075 12.5724 14.158 12.8464 14.0225 13.1123C13.8228 13.5043 13.5043 13.8228 13.1123 14.0225C12.8464 14.158 12.5724 14.2075 12.3037 14.2295C12.0437 14.2507 11.7272 14.25 11.3662 14.25H4.63379C4.2728 14.25 3.95625 14.2507 3.69629 14.2295C3.42764 14.2075 3.15358 14.1579 2.8877 14.0225V14.0234C2.49561 13.8237 2.17725 13.5042 1.97754 13.1123C1.84205 12.8464 1.79247 12.5724 1.77051 12.3037C1.74927 12.0437 1.75 11.7272 1.75 11.3662V4.63379C1.75 4.2728 1.74927 3.95625 1.77051 3.69629C1.79247 3.42765 1.84206 3.15358 1.97754 2.8877C2.17726 2.49573 2.49573 2.17726 2.8877 1.97754C3.15358 1.84206 3.42765 1.79247 3.69629 1.77051C3.95625 1.74927 4.2728 1.75 4.63379 1.75H6.16699ZM13.5 1.75C13.9142 1.75 14.25 2.08579 14.25 2.5V6.83301C14.25 7.24722 13.9142 7.58301 13.5 7.58301C13.0858 7.58301 12.75 7.24722 12.75 6.83301V4.31055L7.86328 9.19727C7.57036 9.48983 7.09552 9.49005 6.80273 9.19727C6.50995 8.90448 6.51017 8.42964 6.80273 8.13672L11.6895 3.25H9.16699C8.75278 3.25 8.41699 2.91421 8.41699 2.5C8.41699 2.08579 8.75278 1.75 9.16699 1.75H13.5Z"
    fill="currentColor"
  />
</svg>

<svg xmlns="http://www.w3.org/2000/svg" width="16" height="16" fill="none" data-fui-icon="true" viewBox="0 0 16 16"><path fill="currentColor" d="M6.167 1.75a.75.75 0 0 1 0 1.5H4.634c-.386 0-.63 0-.816.016-.175.014-.23.038-.25.047a.6.6 0 0 0-.255.255c-.01.02-.033.075-.047.25-.015.185-.016.43-.016.816v6.732c0 .386 0 .63.016.816.014.175.038.23.047.25a.6.6 0 0 0 .177.207l.078.048.067.022c.038.009.096.018.183.025.185.015.43.016.816.016h6.732c.386 0 .63 0 .816-.016.175-.014.23-.038.25-.047a.6.6 0 0 0 .255-.255c.01-.02.033-.075.047-.25.015-.185.016-.43.016-.816V9.833a.75.75 0 0 1 1.5 0v1.533c0 .361 0 .678-.02.938a2.1 2.1 0 0 1-.207.808c-.2.392-.519.71-.91.91-.267.136-.54.185-.81.207-.26.022-.576.021-.937.021H4.634c-.361 0-.678 0-.938-.02a2.1 2.1 0 0 1-.808-.207c-.392-.2-.71-.519-.91-.91a2.1 2.1 0 0 1-.207-.81c-.022-.26-.021-.576-.021-.937V4.634c0-.361 0-.678.02-.938.022-.268.072-.542.208-.808.2-.392.518-.71.91-.91.266-.136.54-.186.808-.207.26-.022.577-.021.938-.021zm7.333 0a.75.75 0 0 1 .75.75v4.333a.75.75 0 0 1-1.5 0V4.311L7.863 9.197a.75.75 0 0 1-1.06-1.06L11.69 3.25H9.167a.75.75 0 0 1 0-1.5z"/></svg>
